**kern	**kern
*staff2	*staff1
*clefF4	*clefG2
*k[b-e-]	*k[b-e-]
*M4/4	*M4/4
=122	=122
*^	*
2r	4FFF	8FFL
.	.	16GGL
.	.	16AAJJ
.	[2.FF	16BB-LL
.	.	16C
.	.	16D
.	.	16EJJ
*	*	*clefG2
4r	.	16FLL
.	.	16G
.	.	16A
.	.	16B-JJ
(4F	.	16cLL
.	.	16d
.	.	16e
.	.	16fJJ
=123	=123	=123
4E	1FF]	16G'LL
.	.	(16g
.	.	16f#
.	.	16gJJ)
4E-	.	16A'LL
.	.	(16a
.	.	16g#
.	.	16aJJ)
4D	.	16B-'LL
.	.	(16b-
.	.	16a
.	.	16b-JJ)
4C	.	16c'LL
.	.	(16cc
.	.	16b
.	.	16ccJJ)
=124	=124	=124
4BB-)	4BB-	16d'LL
.	.	(16dd
.	.	16cc#
.	.	16ddJJ)
4r	4r	16f'LL
.	.	(16ff
.	.	16ee
.	.	16ffJJ)
2r	2r	16b-'LL
.	.	(16bb-
.	.	16aa
.	.	16bb-JJ)
.	.	16dd'LL
.	.	(16ddd
.	.	16ccc#
.	.	16dddJJ)
*v	*v	*
=125	=125
16D'LL	8ffL 8fff
(16d	.
16c#	8bb-J 8ddd
16dJJ)	.
16E-'LL	8r
(16e-	.
16d	8bb- 8ddd
16e-JJ)	.
16E'LL	8r
(16e	.
16d#	8bb- 8ccc
16eJJ)	.
16F'LL	8r
(16f	.
16e	8aa 8ccc
16fJJ)	.
=126	=126
4BB- 4B-	16dd'LL
.	(16ddd
.	16ccc#
.	16dddJJ)
4r	16b-'LL
.	(16bb-
.	16aa
.	16bb-JJ)
2r	16f'LL
.	(16ff
.	16ee
.	16ffJJ)
.	16d'LL
.	(16dd
.	16cc#
.	16ddJJ)
=127	=127
*	*clefF4
16DD'LL	8r
(16D	.
16C#	8B- 8d
16DJJ)	.
16EE-'LL	8r
(16E-	.
16D	8B- 8d
16E-JJ)	.
16EE'LL	8r
(16E	.
16D#	8B- 8c
16EJJ)	.
16FF'LL	8r
(16F	.
16E	8A 8c
16FJJ)	.
=128	=128
16BBB-'LL	4B-
(16BB-	.
16AA	.
16BB-JJ	.
16AALL	4r
16BB-	.
16FF	.
16DDJJ)	.
4BBB-	2r
4r	.
=	=
*-	*-
